icons/svgs/circle-dot-solid.svg

<svg width="24" height="24" viewBox="0 0 24 24" fill="none" xmlns="http://www.w3.org/2000/svg">
<path d="M12 22C8.40625 22 5.125 20.125 3.32812 17C1.53125 13.9141 1.53125 10.125 3.32812 7C5.125 3.91406 8.40625 2 12 2C15.5547 2 18.8359 3.91406 20.6328 7C22.4297 10.125 22.4297 13.9141 20.6328 17C18.8359 20.125 15.5547 22 12 22ZM12 8.25C10.6328 8.25 9.42188 8.99219 8.71875 10.125C8.05469 11.2969 8.05469 12.7422 8.71875 13.875C9.42188 15.0469 10.6328 15.75 12 15.75C13.3281 15.75 14.5391 15.0469 15.2422 13.875C15.9062 12.7422 15.9062 11.2969 15.2422 10.125C14.5391 8.99219 13.3281 8.25 12 8.25Z" fill="black"/>
</svg>

<svg xmlns="http://www.w3.org/2000/svg" width="24" height="24" fill="currentColor" class="icon-circle-dot-solid" viewBox="0 0 24 24">
  <mask id="a" width="21" height="20" x="1" y="2" maskUnits="userSpaceOnUse" style="mask-type:alpha">
    <path d="M12 22c-3.594 0-6.875-1.875-8.672-5-1.797-3.086-1.797-6.875 0-10C5.125 3.914 8.406 2 12 2c3.555 0 6.836 1.914 8.633 5 1.797 3.125 1.797 6.914 0 10A9.93 9.93 0 0 1 12 22m0-13.75c-1.367 0-2.578.742-3.281 1.875-.664 1.172-.664 2.617 0 3.75.703 1.172 1.914 1.875 3.281 1.875 1.328 0 2.54-.703 3.242-1.875.664-1.133.664-2.578 0-3.75C14.54 8.992 13.328 8.25 12 8.25"/>
  </mask>
  <g mask="url(#a)">
    <path d="M0 0h24v24H0z"/>
  </g>
</svg>
